X:1
T:The Mosquitoes' Parade
T:The Mosquitoes' Parade
T:(A Jersey Review.)
T:Howard Whitney. (of Whitney Brothers.) Arranged by Finlay Housham 
C:Howard Whitney. (of Whitney Brothers.)
%%score [ 1 2 ] { 3 | 4 }
L:1/8
Q:1/4=144
M:6/8
K:C
V:1 treble nm="Violin I"
V:2 treble nm="Violin II"
V:3 bass nm="Piano" snm="Pno."
V:4 bass 
V:1
"^INTRO."!ff!"^Allegro" c z d e z f | g z z c'2 z | g z a g z a | g2 z2 z (3(G,/A,/B,/ |: %4
"^TUNE" C) z A GEC | B, z ^A, B, z (3(G,/=A,/B,/ | C) z A!p! GEC | B, z ^A, B, z G, | %8
!mf! G z E ^C z A, | A z F D z A, |!f!!<(! A, z B, C z ^C!<)! |!>(! E z D B, z (3(G,/A,/B,/!>)! | %12
 C) z!p! A GEC | B, z ^A, B, z (3(G,/=A,/B,/ | C) z!p! A GEC | B, z ^A, B, z G, | %16
!mf! G z E!<(! ^C z A,!<)! | A z F D z A, | A,B,C D2 E |1!<(! C z z [Ec] z (3(G,/A,/B,/)!<)! :|2 %20
 C z z [Ec] z z |: G, z z!mf! (G3 |!>(! ^F3 =F3)!>)! | EB,C DCA, |!<(! (G,3 G,2) ^G,!<)! | %25
!mf! A, z z (A3 |!>(! ^G3 =G3)!>)! | FA,B, ^CB,A, | (D3 D) z z |{/c} B^AB F z B | F z B F z B | %31
{/B} A^GA E z A | E z A E z A |!mf!!<(!{/A} G^FG !>!G,2 z!<)! |{/A} G^FG !>!^G,2 z | %35
{/A} G^FG A,2 ^A, |1!ff! B, z z [Bg] z z :|2 B, z z [Bg] z"^Solo I" (3(G/A/B/ || c) z!f! a gec | %39
 B z ^A B z (3(G/=A/B/ | c) z a gec | B z ^A B z G | g z e ^c z A | z4 z2 | %44
!f!"^pizz."!<(! [Aa] z [Bb] [cc'] z [^c^c']!<)! |!>(! [ee'] z [dd'] [Bb] z z!>)! | %46
"^Solo II""^arco" C z!f! A GEC | B, z ^A, B, z (3(G,/=A,/B,/ | C) z!p! A GEC | B, z ^A, B, z G, | %50
!mf! G z E!<(! ^C z A,!<)! | A z F D z A, |!<(! A,B,C D2 E!<)! |!ff! !>!C z z [Ec] z z || %54
[K:F]!mf!"^TRIO"[Q:1/4=172]"^Vivace" C z D E z D | C z D (EDC) | F z G A z G | F z G (AGF) | %58
 G z A B z A | G z A B z =B |!<(! d z c A z F!<)! | (D2 _D C) z z |!f! C z D E z D | C z D (EDC) | %64
 F z G A z G |!<(! F z G (AGF)!<)! |!f! _d z _A !>!d3 | c z =A !>!c3 | C z D (EDC) | F z z2 z2 | %70
"^Solo I" c z d e z d | c z d edc | f z g a z g | f z g (agf) | g z a b z a | %75
!<(! g z a b z =b!<)! | d' z c' a z f |!ff!!<(! (d2 _d c) z z!<)! |!f!"^Solo II" c z d e z d | %79
 c z d (edc) | f z g a z g | f z g agf |!ff! _d' z _a !>!d'3 | c' z =a !>!c'3 | %84
!<(! c z d (edc)!<)! | [Af] z z [A,F] z z |] %86
V:2
!ff! C z D E z F | G z z c2 z | G z A G z A | G2 z2 z (3(G,/A,/B,/ |: C) z z G, z z | %5
 B, z z G, z (3(G/A/B/ | c) z z!pp! G z z | B z z G z z | g z e ^c z A | a z f d z A | %10
!mp! c' z b a z ^a | b z g b z (3(G,/A,/B,/ | C) z z!pp! G, z A, | B, z z G, z B, | %14
 C z z!pp! G, z A, | B, z z G, z B | g z e ^c z A | a z f d z A | A3 B2 B |1 %19
 c z z [CG] z (3(G,/A,/B,/) :|2 C z z [CG] z z |: G z z!p! (e3 | ^d3 =d3) | c z G c z G | %24
 c z!mf! C (B,2 _B, | A,) z z!p! (f3 | e3 ^c3) | d z A d z A | d z2 z3 | z2!pp! .b .f z .b | %30
 .f z .b .f z2 | z2 .a .e z .a | .e z .a .e z .a |!mf!!<(! z z z !>![G,G]2 z!<)! | z z z !>!^G2 z | %35
 G3 A2 ^A |1!ff! B z z [G,G] z z :|2 B z z [G,G] z z || z4 z2 | z4 z2 | z4 z2 | z4 z2 | z4 z2 | %43
 z4 z2 |"^pizz." c' z b a z ^a | b z g b z z | z4 z2 | z4 z2 | z4 z2 | z4 z2 | z4 z2 | z4 z2 | %52
"^arco"!<(! A3 BAB!<)! |!ff! !>!c z z [CG] z z ||[K:F]!p! g z z c z z | g z z c z z | c z z F z z | %57
 c z z F z z | d z z E z z | d z z C z E |!<(! C z D F z A!<)! | (c2 ^c d) z z |!p! g z z c z z | %63
 g z z c z z | c z z F z z |!<(! c z z F z z!<)! |!f! _D z _A, !>!D3 | C z =A, !>!C3 | %68
!mf! g z z c z z | F z z2 z2 | z4 z2 | z4 z2 | z4 z2 | z4 z2 | z4 z2 | z4 z2 | z4 z2 | z4 z2 | %78
 z4 z2 | z4 z2 | z4 z2 | z4 z2 |!ff! _d z _A !>!d3 | c z =A !>!c3 |!<(! C z D (EDC)!<)! | %85
 [A,F] z z [A,F] z z |] %86
V:3
!ff! C, z D, E, z F, | G, z z C2 z | G, z A, G, z A, | G, z z2 z (3(G,/A,/B,/ |: %4
[K:treble] c) z z G z A | B z ^A B z B | c z z!p! G z A | B z ^A B z B |!mf! ged ^cde | agf def | %10
 z4 z2 | z4 z B | c z z!p! G z A | B z ^A B z B | c z z!p! G z A | B z ^A B z B |!mf! gfe ^cde | %17
 agf def |!<(! c'd'e' (d'/c'/b/a/g/f/)!<)! |1!ff! [Ece] z z [ec'] z (3(G/A/B/) :|2 %20
 [Ec] z z [ec'] z z |: [G,G] z z!mp! (A3 | ^A3 B3) | c3 C2 E | c z [B,G] [Ec]2 [D_B] | %25
 [^CA] z z (A3 | B3 ^c3) | d3 E2 F | ([B,D]2 [CA] [F,D]) z z | z2!pp! .b .f z .b | .f z .b .f z2 | %31
 z2 .a .e z .a | .e z .a .e z .A, |!mf!!<(! [G,B,] z [G,B,] [G,B,] z [G,B,]!<)! | %34
 [^G,B,] z [G,B,] [G,B,] z [G,B,] | [A,C][A,C][A,C] [A,C][A,C][^A,C] |1 %36
!ff! [G,D] z z [G,DG] z z :|2 B, z z [G,DG] z z ||!p! C z z G, z E | D z [FG] [FG] z B, | %40
 C z z G, z E | D z [FG] G, z D | C z z [A,E] z z |!f! [ca] z [Af] [Fd] z [CA] | a z b c' z ^c' | %45
 e' z d' b z ([B,^D] |!pp! [CE]) z z G z A | B z ^A B z B | c z z G z A | B z ^A B z z | %50
!mf! gfe ^cde | agf def |!<(! c'd'e' (d'/c'/b/a/g/f/)!<)! |!ff! !>![Ece] z z [ec'] z z || %54
[K:F]!p! [Dd] z z [G,G] z z | [Dd] z z [G,G] z z | F3 A2 A | F2 E (FGA) | G3 B2 B | G3 B2 =B | %60
!<(! [Bd] z c [FA] z F!<)! | (D2 _D C) z z |!p! [Dd] z z [G,G] z z | [Dd] z z [G,G] z z | F3 A2 A | %65
!<(! F2 E (FGA)!<)! |!f! _D z [_A_cf] !>![Acf]3 | E z [FAc] !>![FAc]3 | [B,G] z z C z z | %69
!<(! [A,F] cc ccc!<)! | c z e G z e | c z e G z g | f z a c z a | f z g (fga) | b z g e z g | %75
 b z g e z g | d'3 c'2 a |!f! [Dd]2 [_D_d] [Cc]3 | z4 z2 | z4 z2 | z4 z2 | z4 z2 | %82
!f! _D z [_A_cf] !>![Acf]3 | E z [FAc] !>![FAc]3 |!<(! [B,G] z z C z z!<)! | %85
 [FAcf] z z [F,A,CF] z z |] %86
V:4
!ff! C,, z D,, E,, z F,, | G,, z z [E,G,]2 z | E, z F, E, z F, | %3
 [G,,E,]2 z [G,,,D,,G,,]2 (3(G,,/A,,/B,,/) |: (([C,E,] z)) z G,, z [E,G,] | %5
 D, z [F,G,] [F,G,] z (([B,,^D,] | [C,E,])) z z!mf! G,, z [E,G,] | D, z [F,G,] G,, z [D,F,] | %8
 [C,E,] z z [A,,E,G,] z z | [D,F,] z z [F,A,] z z | A,, z [D,^F,] D,, z [D,F,] | %11
 G,, z [D,F,] [D,F,] z (([B,,^D,] | [C,E,])) z z G,, z [E,G,] | D, z [F,G,] [F,G,] z (([B,,^D,] | %14
 [C,E,])) z z G,, z [E,G,] | D, z [F,G,] G,, z [D,F,] | [C,E,] z z [A,,E,G,] z z | %17
 [D,F,] z z [F,A,] z z | [D,^F,]3 [G,,=F,]3 |1 [C,E,] z z [C,,C,] z (([B,,^D,] :|2 %20
 [C,E,])) z z [C,,C,] z z |: [G,,,G,,] z z [G,,G,]3 | [A,,G,]3 [B,,G,]3 | %23
 C, z [E,G,] C, z [^D,^F,] | [C,E,] z G,, [C,,C,]2 [_B,,,_B,,] | [A,,,A,,] z z ([A,,A,]3 | %26
 [B,,A,]3 [^C,A,]3) | [D,F,]3 [E,G,]3 | ([F,A,]2 A,,) D,, z z | D, z!pp! [F,G,B,] G,, z [F,G,B,] | %30
 G,, z [F,G,B,] G,, z [F,G,B,] | C, z [E,G,C] G,, z [E,G,C] | C, z [E,G,C] G,, z [E,G,C] | %33
!mf!!<(! G,,A,,B,, [G,,,G,,C,]D,E,!<)! | F,E,D, [^G,,,^G,,C,]B,,A,, | %35
 G,,A,,B,, [A,,,A,,C,]D,[^A,,,A,,E,] |1!ff! [B,,,B,,F,] z z [G,,,G,,] z z :|2 %37
 [B,,,B,,F,] z z [G,,,G,,] z (([G,,^D,] ||!p! [C,E,])) z z G,, z [E,G,] | %39
 D, z [F,G,] [F,G,] z (([B,,^D,] | [C,E,])) z z G,, z [E,G,] | D, z [F,G,] G,, z [D,F,] | %42
 [C,E,] z z [A,,E,G,] z z | [D,F,] z z [F,A,] z z | A,, z [D,^F,] D,, z [D,F,] | %45
 G,, z [D,F,] [D,F,] z (([B,,^D,] |!pp! [C,E,])) z z G,, z [E,G,] | %47
 D, z [F,G,] [F,G,] z (([B,,^D,] | [C,E,])) z z G,, z [E,G,] | D, z [F,G,] G,, z [D,F,] | %50
 [C,E,] z z [A,,E,G,] z z | [D,F,] z z [F,A,] z z |!<(! [D,^F,]3 [G,,=F,]3!<)! | %53
!ff! !>![C,E,] z z [C,,C,] z z ||[K:F]!mp! [G,,G,] z z [C,,C,] z z | [G,,G,] z z [C,,C,] z z | %56
 F, z [A,C] C, z [A,C] | F, z [A,C] C, z [A,C] | E, z [B,C] C, z [B,C] | E, z [B,C] C, z [B,C] | %60
 F, z [A,C] C, z [A,C] | (D,2 _D, C,) z z |!mp! [G,,G,] z z [C,,C,] z z | [G,,G,] z z [C,,C,] z z | %64
 F, z [A,C] C, z [A,C] | F, z [A,C] C, z [A,C] |!f! B,, z [F,_A,_D] !>![F,A,D]3 | %67
 C, z [F,=A,C] !>![F,A,C]3 | [G,,G,] z z [C,,C,G] z z |!<(! [F,,F,] C,C, C,C,C,!<)! | %70
 G, z [B,CE] C, z [B,CE] | G, z [B,CE] C, z [B,CE] | F, z [A,CF] C, z [A,CF] | %73
 F, z [A,CF] C, z [A,CF] | G, z [B,CE] C, z [B,CE] | G, z [B,CE] C, z [B,CE] | %76
 F, z [A,CF] C, z [A,CF] |!f! [D,,D,]2 [_D,,_D,] [C,,C,]3 |!mp! G, z [B,CE] C, z [B,CE] | %79
 G, z [B,CE] C, z [B,CE] | F, z [A,CF] C, z [A,CF] | F, z [A,CF] C, z [A,CF] | %82
!ff! B,, z [F,_A,_D] !>![F,A,D]3 | C, z [F,=A,C] !>![F,A,C]3 | G, z [B,CE] C, z [B,CE] | %85
 [F,A,CF] z z [F,,F,] z z |] %86

